X:1
T:Fowey, 77.77.77
T:Fowey, 77.77.77
T:Adapted by Samuel Sebastian Wesley, 1864
T:Public Domain Courtesy of the Cyber Hymnal™
C:Adapted by Samuel Sebastian Wesley, 1864
Z:Public Domain
Z:Courtesy of the Cyber Hymnal™
%%score ( 1 2 ) ( 3 4 )
L:1/8
Q:1/4=108
M:none
K:D
V:1 treble 
V:2 treble 
V:3 bass 
V:4 bass 
V:1
 [FA]2 [Fd]2 [FA]2 [EB]2 | [EA]2 (AG) [DF]4 | [DA]2 [DA]2 [DG]2 [DF]2 | [DE]2 [CE]2 [A,D]4 | %4
 [A,E]2 [CE]2 (F^G) [EA]2 | [FA]2 [E^G]2 [EA]4 | [DB]2 [Ec]2 [Dd]2 [Fd]2 | [Fc]2 c2 [DB]4 | %8
 [DF]2 [CF]2 [DB]2 [FA]2 | [EA]2 [E^G]2 [EA]4 | [GB]2 [FA]2 [EG]2 [DF]2 | [DE]2 [CE]2 [A,D]4 |] %12
V:2
 x8 | x2 E2 x4 | x8 | x8 | x4 D2 x2 | x8 | x8 | x2 (FE) x4 | x8 | x8 | x8 | x8 |] %12
V:3
 [D,D]2 [B,,D]2 [F,D]2 [G,D]2 | [A,D]2 [A,,C]2 [D,A,]4 | [F,A,]2 [F,A,]2 [G,B,]2 [B,,B,]2 | %3
 [G,,B,]2 [A,,A,]2 [D,F,]4 | [C,A,]2 [A,,A,]2 (A,B,) [C,C]2 | [B,,D]2 [E,D]2 [A,,C]4 | %6
 [G,B,]2 [G,A,]2 [F,A,]2 [D,B,]2 | [F,B,]2 [F,^A,]2 [B,,B,]4 | [B,,D]2 [A,,C]2 [G,,B,]2 [D,D]2 | %9
 [E,B,]2 [E,B,]2 [A,,C]4 | [C,E]2 [D,A,]2 [^A,,C]2 [B,,D]2 | [G,,B,]2 (A,G,) [D,F,]4 |] %12
V:4
 x8 | x8 | x8 | x8 | x4 D,2 x2 | x8 | x8 | x8 | x8 | x8 | x8 | x2 A,,2 x4 |] %12

